!!!OTL: 1736. Beim Pfaenderspiel.
!!!ARE: Europa, Mitteleuropa, Deutschland, Bergisches Land
!!!SCT: E1736
!!!TXL: @@DE
!!!YEM: Copyright 1995, estate of Helmut Schaffrath.
**kern	**text
*ICvox	*
*M4/4	*
*met(c)	*
*k[f#]	*
*G:	*
!LO:TX:a:t=Ziemlich rasch.	!
!LO:TX:a:t=Bergiſch. Volksmel. Erk I. 1, Nr. 57.	!
{4d	Jch
=1	=1
4g	fuhr
4a	ein-
4b	-mal
4cc	auf
=2	=2
4dd	Sitt,
8dd	wi-
8ee	-de-
4dd}	-witt,
{4dd	ich
=3	=3
4ee	fuhr
4dd	ein-
4cc	-mal
4b	auf
=4	=4
2r	.
4r}	.
{4d	Jch
=5	=5
4g	fuhr
4a	ein-
4b	-mal
4cc	auf
=6	=6
4dd	Sitt,
8dd	wi-
8ee	-de-
4dd}	-witt,
{4dd	ich
=7	=7
4ee	fuhr
4dd	ein-
4cc	-mal
4b	auf
=8	=8
4dd	Sitt,
4r	.
4r}	.
{4dd	mit
=9	=9
4b	ei-
4dd	-nem
4ee	höl-
4dd	-ʒern
=10	=10
4dd	Löf-
4cc	-fel-
2cc}	-chen,
=11	=11
{4cc	li-
4a	-rum,
4dd	la-
4cc	-rum
=12	=12
4cc	Löf-
4b	-fel-
4b}	-chen,
{4dd	mit
=13	=13
4b	ei-
4dd	-nem
4ee	höl-
4dd	-ʒern
=14	=14
4dd	Löf-
4cc	-fel-
4.cc}	-chen,
{8cc	es
=15	=15
4a	war
4a	kein
4dd	Stiel-
4dd	-chen
=16	=16
2r	.
4r}	.
{4dd	mit
=17	=17
4b	ei-
4dd	-nem
4ee	höl-
4dd	-ʒern
=18	=18
4dd	Löf-
4cc	-fel-
2cc}	-chen,
=19	=19
{4cc	li-
4a	-rum,
4dd	la-
4cc	-rum
=20	=20
4cc	Löf-
4b	-fel-
4b}	-chen,
{4dd	mit
=21	=21
4b	ei-
4dd	-nem
4ee	höl-
4dd	-ʒern
=22	=22
4dd	Löf-
4cc	-fel-
4.cc}	-chen,
{8cc	es
=23	=23
4a	war
4a	kein
4dd	Stiel-
4dd	-chen
=24	=24
4g	dran.
4r	.
4r}	.
==	==
!!!AGN: Scherz -, Spiel - Lied, Pfaenderspiel
!!!ONB: ESAC (Essen Associative Code) Database: ERK3
!!!AMT: simple quadruple
!!!AIN: vox
!!!EED: Helmut Schaffrath
!!!EEV: 1.0
!!!GTL: Scherz-, Spiel- und Spottlieder.
!!!URL-scan: https://rosdok.uni-rostock.de/mcrviewer/recordIdentifier/rosdok_ppn745177999/iview2/phys_0529.iview2?x=-449.8344612962892&y=400.84747084905393&scale=0.47549036216460333&rotation=0&layout=singlePageLayout
!!!ENC: Anna Maria Matuszewska
!!!EEV: 2025/08/01
*-	*-
